assets/img/braze_icons/lightbulb-01.svg

<svg fill="none" height="24" viewBox="0 0 24 24" width="24" xmlns="http://www.w3.org/2000/svg"><g fill="#801ed7"><path d="m3.5 9.5c0-4.69442 3.80558-8.5 8.5-8.5 4.6944 0 8.5 3.80558 8.5 8.5 0 2.0452-.7241 3.9727-1.9369 5.4804-.1349.1676-.2023.2514-.3116.3304-.0882.0636-.2157.1247-.3206.1535-.13.0357-.2568.0357-.5105.0357h-10.84075c-.2537 0-.38055 0-.51054-.0357-.10488-.0288-.2324-.0899-.32057-.1535-.1093-.079-.17673-.1628-.3116-.3304-1.21287-1.5077-1.93694-3.4352-1.93694-5.4804z"/><path d="m9.53199 17.5c-.496 0-.74399 0-.93776.086-.22653.1006-.40764.2817-.5082.5082-.08603.1938-.08603.4418-.08603.9378-.00001.4386-.00002.8171.02135 1.1304.02251.3298.07201.6597.20701.9857.30448.735.88851 1.3191 1.62359 1.6235.32595.135.65585.1845.98565.2071.3133.0213.6918.0213 1.1304.0213h.064c.4386 0 .8171 0 1.1304-.0213.3298-.0226.6597-.0721.9857-.2071.735-.3044 1.3191-.8885 1.6235-1.6235.135-.326.1845-.6559.2071-.9857.0213-.3133.0213-.6918.0213-1.1304 0-.496 0-.744-.086-.9378-.1006-.2265-.2817-.4076-.5082-.5082-.1938-.086-.4418-.086-.9378-.086z"/></g></svg>

<svg width="24" height="24" viewBox="0 0 24 24" fill="none" xmlns="http://www.w3.org/2000/svg">
<path d="M3.5 9.5C3.5 4.80558 7.30558 1 12 1C16.6944 1 20.5 4.80558 20.5 9.5C20.5 11.5452 19.7759 13.4727 18.5631 14.9804C18.4282 15.148 18.3608 15.2318 18.2515 15.3108C18.1633 15.3744 18.0358 15.4355 17.9309 15.4643C17.8009 15.5 17.6741 15.5 17.4204 15.5H6.57965C6.32595 15.5 6.1991 15.5 6.06911 15.4643C5.96423 15.4355 5.83671 15.3744 5.74854 15.3108C5.63924 15.2318 5.57181 15.148 5.43694 14.9804C4.22407 13.4727 3.5 11.5452 3.5 9.5Z" fill="#801ED7"/>
<path d="M9.53199 17.5C9.03599 17.5 8.788 17.5 8.59423 17.586C8.3677 17.6866 8.18659 17.8677 8.08603 18.0942C8 18.288 8 18.536 8 19.032C7.99999 19.4706 7.99998 19.8491 8.02135 20.1624C8.04386 20.4922 8.09336 20.8221 8.22836 21.1481C8.53284 21.8831 9.11687 22.4672 9.85195 22.7716C10.1779 22.9066 10.5078 22.9561 10.8376 22.9787C11.1509 23 11.5294 23 11.968 23H12.032C12.4706 23 12.8491 23 13.1624 22.9787C13.4922 22.9561 13.8221 22.9066 14.1481 22.7716C14.8831 22.4672 15.4672 21.8831 15.7716 21.1481C15.9066 20.8221 15.9561 20.4922 15.9787 20.1624C16 19.8491 16 19.4706 16 19.032C16 18.536 16 18.288 15.914 18.0942C15.8134 17.8677 15.6323 17.6866 15.4058 17.586C15.212 17.5 14.964 17.5 14.468 17.5H9.53199Z" fill="#801ED7"/>
</svg>
